docs/.gitbook/assets/icon-repeat-16@dark.svg

<svg width="32" height="32" viewBox="0 0 16 16" fill="none" xmlns="http://www.w3.org/2000/svg">
<rect x="0" y="0" width="16" height="16" fill="#181c1f"/>
<path fill-rule="evenodd" clip-rule="evenodd" d="M7.19253 1.24828C7.46962 0.9404 7.94384 0.915442 8.25172 1.19254L10.7517 3.44254C10.9098 3.58477 11 3.78739 11 4.00001C11 4.21262 10.9098 4.41525 10.7517 4.55748L8.25172 6.80748C7.94384 7.08457 7.46962 7.05961 7.19253 6.75173C6.91544 6.44385 6.94039 5.96963 7.24828 5.69254L8.29553 4.75001H5.75C3.95507 4.75001 2.5 6.20508 2.5 8.00001V9.25001C2.5 9.66422 2.16421 10 1.75 10C1.33579 10 1 9.66422 1 9.25001V8.00001C1 5.37665 3.12665 3.25001 5.75 3.25001H8.29553L7.24828 2.30748C6.94039 2.03038 6.91544 1.55617 7.19253 1.24828ZM14.25 6.00001C14.6642 6 15 6.33579 15 6.75L15 7.99997C15 10.6233 12.8734 12.75 10.25 12.75H7.70447L8.75172 13.6925C9.0596 13.9696 9.08456 14.4438 8.80747 14.7517C8.53037 15.0596 8.05616 15.0846 7.74827 14.8075L5.24827 12.5575C5.09024 12.4152 5 12.2126 5 12C5 11.7874 5.09024 11.5848 5.24827 11.4425L7.74827 9.19254C8.05616 8.91544 8.53037 8.9404 8.80747 9.24828C9.08456 9.55617 9.0596 10.0304 8.75172 10.3075L7.70447 11.25H10.25C12.0449 11.25 13.5 9.79492 13.5 7.99998L13.5 6.75001C13.5 6.3358 13.8358 6.00001 14.25 6.00001Z" fill="#fff"/>
</svg>

<svg xmlns="http://www.w3.org/2000/svg" width="32" height="32" fill="none" viewBox="0 0 16 16"><path fill="#181c1f" d="M0 0h16v16H0z"/><path fill="#fff" fill-rule="evenodd" d="M7.193 1.248a.75.75 0 0 1 1.059-.055l2.5 2.25a.75.75 0 0 1 0 1.114l-2.5 2.25a.75.75 0 0 1-1.004-1.114l1.048-.943H5.75A3.25 3.25 0 0 0 2.5 8v1.25a.75.75 0 0 1-1.5 0V8a4.75 4.75 0 0 1 4.75-4.75h2.546l-1.048-.943a.75.75 0 0 1-.055-1.059M14.25 6a.75.75 0 0 1 .75.75V8a4.75 4.75 0 0 1-4.75 4.75H7.704l1.048.943a.75.75 0 0 1-1.004 1.114l-2.5-2.25a.75.75 0 0 1 0-1.114l2.5-2.25a.75.75 0 1 1 1.004 1.114l-1.048.943h2.546A3.25 3.25 0 0 0 13.5 8V6.75a.75.75 0 0 1 .75-.75" clip-rule="evenodd"/></svg>
